!!!OTL-incipit: ACH ELSELEIN, LIEBES ELSELEIN MEIN
!!!ARE: Europa, Mitteleuropa, Deutschland
!!!SCT: Z0022
!!!TXL: @@DE
!!!YEM: Copyright 1995, estate of Helmut Schaffrath.
**kern	**text
*ICvox	*
*M3/8	*
*k[b-]	*
!LO:TX:a:t=Liederbuch des 16. Jahrhunderts.	!
{8g	Ach
=1	=1
8.g	El-
16a	-ſe-
8b-/	-lein,
=2	=2
4a	lie-
8g	-bes
=3	=3
8.a	El-
16b-/	-ſe-
8cc	-lein
=4	=4
4dd}	mein,
{8dd	wie
=5	=5
4cc	gern
8a	wär
=6	=6
(8.b-/	ich
16a)	.
8g	bei
=7	=7
4f	dir,
8r	.
=8	=8
4r}	.
{8dd	wie
=9	=9
(8.cc	gern
16b-)	.
8a	wär
=10	=10
4b-/	ich
8g	bet
=11	=11
4f	dir,
8r	.
=12	=12
4r}	.
{8f	ſo
=13	=13
(8.g	ſind
16a)	.
8b-/	ʒwei
=14	=14
8ccL	tie-
8b-J	.
8a	-fe
=15	=15
8gL	Waſ-
8a	.
8b-J	.
=16	=16
4a}	-ſer
{8g	wohl
=17	=17
4f	ʒwi-
8d	-ſchen
=18	=18
4g	dir
8f	und
=19	=19
4g	mir,
8r	.
=20	=20
4r}	.
{8f	ſo
=21	=21
(8.g	ſind
16a)	.
8b-/	ʒwei
=22	=22
8ccL	tie-
8b-J	.
8a	-fe
=23	=23
8gL	Waſ-
8a	.
8b-J	.
=24	=24
4a}	-ſer
{8g	wohl
=25	=25
4f	ʒwi-
8d	-ſchen
=26	=26
4g	dir
8f	und
=27	=27
4g}	mir.
==	==
!!!AGN: Sagen - Lied, Romanze
!!!ONB: ESAC (Essen Associative Code) Database: ZUCCAL
!!!AMT: simple triple
!!!AIN: vox
!!!EED: Helmut Schaffrath
!!!EEV: 1.0
!!!GTL: I. Ernste Romanzen und Sagen.
!!!URL-scan: https://www.digitale-sammlungen.de/de/view/bsb11160571?page=49
!!!ENC: Anna Maria Matuszewska
!!!EEV: 2025/01/23
*-	*-
